src/resources/svg/Deposit.svg

<svg fill="none" height="24" viewBox="0 0 24 24" width="24" xmlns="http://www.w3.org/2000/svg"><g stroke-linecap="round" stroke-miterlimit="10" stroke-width="1.5"><path d="m2.00011 11.8773c-.006-.9143.23886-1.8128.70794-2.59763.46909-.78485 1.14443-1.42604 1.95255-1.8538l7.2648-3.84819c.5803-.30735 1.2154-.49741 1.8691-.55931.6537-.06191 1.3131.00554 1.9407.1985.6277.19296 1.2111.50765 1.7171.9261s.9246.93247 1.232 1.51271l.751 1.41777c.1023.19308.192.3926.2685.59731" stroke="#686868"/><path d="m17 6.87744h-10c-2.76142 0-5 2.23858-5 4.99996v4.1275c0 2.7614 2.23858 5 5 5h10c2.7614 0 5-2.2386 5-5v-4.1275c0-2.76138-2.2386-4.99996-5-4.99996z" stroke="#686868"/><path d="m14.7198 13.9412h-5.43953" stroke="#b5b5b5"/></g></svg>

<svg width="24" height="24" viewBox="0 0 24 24" fill="none" xmlns="http://www.w3.org/2000/svg">
<path d="M2.00011 11.8773C1.99411 10.963 2.23897 10.0645 2.70805 9.27967C3.17714 8.49482 3.85248 7.85363 4.6606 7.42587L11.9254 3.57768C12.5057 3.27033 13.1408 3.08027 13.7945 3.01837C14.4482 2.95646 15.1076 3.02391 15.7352 3.21687C16.3629 3.40983 16.9463 3.72452 17.4523 4.14297C17.9583 4.56142 18.3769 5.07544 18.6843 5.65568L19.4353 7.07345C19.5376 7.26653 19.6273 7.46605 19.7038 7.67076" stroke="#686868" stroke-width="1.5" stroke-miterlimit="10" stroke-linecap="round"/>
<path d="M17 6.87744H7C4.23858 6.87744 2 9.11602 2 11.8774V16.0049C2 18.7663 4.23858 21.0049 7 21.0049H17C19.7614 21.0049 22 18.7663 22 16.0049V11.8774C22 9.11602 19.7614 6.87744 17 6.87744Z" stroke="#686868" stroke-width="1.5" stroke-miterlimit="10" stroke-linecap="round"/>
<path d="M14.7198 13.9412H9.28027" stroke="#B5B5B5" stroke-width="1.5" stroke-miterlimit="10" stroke-linecap="round"/>
</svg>
